X: 21532
T: La POSTE QUADRILLES No. 4.--Pastourelle.
%R: reel
P: Original key G.
B: W. Hamilton "Universal Tune-Book" Vol. 2 Glasgow 1846 p.153 #2
S: http://s3-eu-west-1.amazonaws.com/itma.dl.printmaterial/book_pdfs/hamiltonvol2web.pdf
Z: 2016 John Chambers <jc:trillian.mit.edu>
M: 2/4
L: 1/16
K: D
% - - - - - - - - - - - - - - - - - - - - - - - - -
!segno![|!f!\
dfba aAdf | fFAd dDFA | AGFG EFGA | BA^GA F2z2 |\
dfba aAdf | fFAd dDFA | AGFG g^dec | d2z2 d2z2 H|]
d2f2F2G2 | (B4 A2) zA | ^G2A2B2F2 | (A4 G2) zG |\
G2F2G2A2 | F6 F2 | F2E2D2E2 | F4- F2 zF |
F2 E4 FG | B2 A4 dd | dccd ^dee^e | f2 a4 ^g2- |\
^g2 =g4 f2- | f2 e4 d2 | d2A2f3e | d2z2 d2z2 |
e2ce aaaa | ^g2ff fff^e | =e2^d2=d2B2 | c2A^G ABcd |\
e2ce aaa^g | f2df d'd'd'd' | d'b^ge dB^GE | A2z2 a2z2 !segno!|]
% - - - - - - - - - - - - - - - - - - - - - - - - -

%%sep 1 1 500
%%sep 1 1 500

